X:1
T:Title
%%score ( 1 2 ) ( 3 4 )
L:1/8
M:3/4
K:E
V:1 treble nm="Grand Piano, Soprano"
V:2 treble 
V:3 bass nm="Choir Pad, Greenford, 11.11.11.11 D"
V:4 bass 
V:1
 E2 [EG]2 [EG]2 | [EG]2 [FB]2 [DB]2 | [EB]2 [Ec]2 [Ec]2 | [Ad]2 [Ge]4 | [Ge]2 [Ec]2 [EA]2 | %5
w: By~J.~T.~Holloway,~1882 * *|||||
 [Ec]2 [EB]4 | [EG][EB] [DA]2 [FA]2 | [EG]2 [DF]4 | [DB]2 [EB]2 [EG]2 | [Ec]2 [EB]2 [EG]2 | %10
w: |||||
 [GB]2 [GB]2 [EG]2 | [Ec]2 [EB]4 | [GB]2 [Ac]2 [Ac]2 | [Ad]2 [Ge]4 | [GB][EG] E2 [EG]2 | [DF]2 E4 | %16
w: ||||||
 [GB][EG] [B,E]2 [B,E]2 | [EG]2 [DF]2 [DF]2 | .B2 z2 z2 | [EG]2 [DF]4 | [DF]2 E2 E2 | E2 [Ee]4 | %22
w: ||||||
 [Fd][Fc] [DB]2 [Fd]2 | [Ec]2 [DB]4 | [DB]2 [EB][FA] [EG][FA] | [GB][Ac] [GB]2 [EG]2 | %26
w: ||||
 [EG]2 [DA][EG] [DF][EG] | [FA][GB] [FA]2 [DF]2 | [DF]2 E2 [EG]2 | [GB]2 [Ge]4 | %30
w: ||||
 [GB][EG] E2 [EG]2 | [DF]2 E4- | E4 z2 |] %33
w: |||
V:2
 x6 | x6 | x6 | x6 | x6 | x6 | x6 | x6 | x6 | x6 | x6 | x6 | x6 | x6 | x6 | x6 | x6 | x6 | %18
 D-[DG] E2 E2 | x6 | x6 | x6 | x6 | x6 | x6 | x6 | x6 | x6 | x6 | x6 | x6 | x6 | x6 |] %33
V:3
 [E,G,]2 [E,B,]2 [E,B,]2 | [E,B,]2 [D,B,]2 [B,,B,]2 | [E,G,]2 A,2 [A,C]2 | B,2 [E,B,]4 | %4
 [E,B,]2 A,2 [A,C]2 | A,2 [G,B,]4 | [E,B,][G,B,] [F,B,]2 [D,B,]2 | [E,B,]2 [B,,B,]4 | %8
 [B,,A,]2 [E,G,]2 [E,B,]2 | [E,A,]2 [E,G,]2 [E,B,]2 | [E,E]2 [E,E]2 [E,B,]2 | [E,A,]2 [E,G,]4 | %12
 [E,E]2 [A,E]2 [A,E]2 | [F,B,]2 [E,B,]4 | [E,E][E,B,] A,2 B,2 | [B,,A,]2 [E,G,]4 | .E2 z2 z2 | %17
 [E,B,]2 [B,,B,]2 [B,,B,]2 | [B,,B,]2 [E,G,]2 [E,G,]2 | [E,B,]2 [B,,B,]4 | %20
 [B,,A,]2 [C,G,]2 [C,G,]2 | [C,G,]2 [F,^A,]4 | [F,B,][F,^A,] [F,B,]2 [F,C]2 | [F,^A,]2 [B,,B,]4 | %24
 z2 .G,2 z2 | [E,E]2 [E,E]2 [E,B,]2 | [E,B,]2 [B,,B,]2 [B,,B,]2 | [B,,B,]2 [B,,B,]4 | %28
 [B,,A,]2 [E,G,]2 [E,B,]2 | [E,E]2 [E,B,]4 | [E,E][E,B,] [A,C]2 B,2 | [B,,A,]2 [E,G,]4- | %32
 [E,G,]4 z2 |] %33
V:4
 x6 | x6 | x6 | x6 | x6 | x6 | x6 | x6 | x6 | x6 | x6 | x6 | x6 | x6 | x6 | x6 | %16
 E,-[E,B,] [E,G,]2 [E,G,]2 | x6 | x6 | x6 | x6 | x6 | x6 | x6 | [B,,A,]2 E,-[E,A,] [E,B,]2 | x6 | %26
 x6 | x6 | x6 | x6 | x6 | x6 | x6 |] %33

